X:1
T:The Barber of Seville
T:The Barber of Seville
T:Il Barbiere di Siviglia, ossia L'inutile precauzione
T:Gioachino Rossini
T:Arranjo: Igor Santander
C:Gioachino Rossini
Z:Cesare Sterbini
%%score { 1 | 2 }
L:1/8
M:4/4
K:G
V:1 treble nm="Piano" snm="Pno."
V:2 bass 
V:1
!p! z8 | z4 z .b.b.b | (c'b) z4 .b.b | (c'b) z2 z .b.b.b | (c'b)z.a (ag)z.f | (fe) e2 z .g.g.g | %6
 (fe)z.g (fe)z.g | (bf) f2 z .f.g.a | (bg)(fe) (dc)(B^A) | .B z!mf! !>!B2- B.e.d.c | %10
 B z !>!B2- B.e.d.c | .B.e.d.c .B.e.d.c |!f!!>(! .B2 .A2 .G2 .F2!>)! |!p! .E2 z2 z4 | z4 z .b.b.b | %15
 ((c'b)) z4 .b.b | ((c'b)) z2 z .b.b.b | ((c'b))z.a ((ag))z.f | (((fe))) e2 z .g.g.g | %19
 ((fe))z.g ((fe))z.g | ((bf)) f2 z .a.g.f |!<(! ((bg))((ge)) ((ec))((cA))!<)! | GBBG FAAF | %23
!f! !>!E2 .E.D z4 | !>!E2 .E.B, z4 | F4 [EG]4 | !fermata!E8 |] %27
V:2
 .[E,G,]2 .[E,G,]2 .[E,G,]2 .[E,G,]2 | .[E,G,]2 .[E,G,]2 .[E,G,]2 .[E,G,]2 | %2
 .[E,G,]2 .[E,G,]2 .[E,G,]2 .[E,G,]2 | .[E,G,]2 .[E,G,]2 .[E,G,]2 .[E,G,]2 | %4
 .[E,G,]2 .[E,G,]2 .[E,G,]2 .[E,G,]2 | .[G,B,]2 .[G,B,]2 .[G,B,]2 .[G,B,]2 | %6
 .[E,G,]2 .[E,G,]2 .[E,G,]2 .[E,G,]2 | .[^D,B,]2 .[D,B,]2 .[D,B,]2 .[D,B,]2 | %8
 .[E,B,]2 .[E,B,]2 .[C,E,]2 .[C,E,]2 | .[B,,^D,] z !>!B,2- B,.E.D.C | .B, z !>!B,2- B,.E.D.C | %11
 .B,.E.D.C .B,.E.D.C | .B,2 .B,,2 .^C,2 .^D,2 | .E,2 .[E,G,]2 .[E,G,]2 .[E,G,]2 | %14
 .[E,G,]2 .[E,G,]2 .[E,G,]2 .[E,G,]2 | .[E,G,]2 .[E,G,]2 .[E,G,]2 .[E,G,]2 | %16
 .[E,G,]2 .[E,G,]2 .[E,G,]2 .[E,G,]2 | .[E,G,]2 .[E,G,]2 .[E,G,]2 .[E,G,]2 | %18
 .[G,B,]2 .[G,B,]2 .[G,B,]2 .[G,B,]2 | .[E,G,]2 .[E,G,]2 .[E,G,]2 .[E,G,]2 | %20
 .[^D,B,]2 .[D,B,]2 .[D,B,]2 .[D,B,]2 | .[E,B,]2 .[E,B,]2 .[C,E,]2 .[C,E,]2 | %22
 .[C,G,]2 .[C,G,]2 .[^D,A,]2 .[D,A,]2 | [E,G,]2 z2 .G,.E,.G,.B, | [E,G,]2 z2 .G,.E,.G,.B, | %25
 [E,G,]4 B,4 | [E,G,]8 |] %27

